X: 1
T: Entlebuecher L\"andler-Walzer BbFEb  chords
T:Hanny Christen. Bd.VII. Bern II, Solothurn. S.268 (wz05208) orig. Bb,F,Eb-Dur
T: T\"anze aus Guggisberg, Sch\"upfen und Plaffeien (Bern) S.257ff
M:3/4
L:1/8
K:Bb %%MIDI gchordon
"Bb"fg fd B2 | "F7"fg fe A2 | ca a3g | "Bb"g4f2 | Bd g3f | "F7"f2e2e2 |1 Ac f3e | "Bb"e4d2 :|2 "F7"cd ef ga | "Bb"b2z2z2 || [K:F] 
|:"F" +>+.e2 f3c | "C7"+>+e2 e3c | b2.b2.b2 | "F"a6 | ca fc Ad | "C7"c3BB2 |1 Bg ec Gc | "F"B3AA2 :|2 "C7"GA Bc de | "F"f2z2z2 || [K:Bb]
"Bb"gg gf df | g3ff2 | "Eb"aa ag eg | a3gg2 | "F7".g2+>+f3e | A6 | "Bb".f2+>+f3d | B6 | gg gf df | g3ff2 | 
"Eb"aa ag eg | a3g gg | "F7".F2+>+F3e | d4c2 | "Bb"B3BB2 | B2z2B2 || [K:Eb] [L:1/4] "Eb"gzg | gfe | "Bb7"e2d | dzB | 
aza | agf | "Eb"(e3 | e)zB | bzb | "Eb7"bag | "Ab"g2f | c2f | "Eb"e2d | "Bb7"g2f | "Eb"(e3 | e)zz |]  

